src/lib/packages/icons/src/assets/line/telescope.svg

<svg width="24" height="24" viewBox="0 0 24 24" fill="none" xmlns="http://www.w3.org/2000/svg">
<path d="M21.4479 7.64598L18.986 3.37498C18.686 2.85398 18.202 2.48189 17.621 2.32689C17.041 2.17089 16.4339 2.25098 15.9159 2.55198L14.172 3.56004C13.567 3.91004 13.196 4.504 13.091 5.145L3.44401 11.7109C2.26601 12.5179 1.90381 14.119 2.61881 15.355L2.87687 15.802C3.37887 16.681 4.30996 17.1831 5.26896 17.1831C5.66496 17.1831 6.06603 17.097 6.44303 16.917L10.2958 15.0759L7.35685 20.6509C7.16385 21.0169 7.30384 21.471 7.66984 21.664C8.03684 21.858 8.49102 21.7161 8.68302 21.3501L12.0019 15.0549L15.3459 21.352C15.4809 21.606 15.7409 21.75 16.0089 21.75C16.1269 21.75 16.247 21.7221 16.36 21.6631C16.726 21.4691 16.8648 21.0149 16.6708 20.6489L13.0219 13.7739L16.9909 11.8779C17.0559 11.9019 17.116 11.9319 17.184 11.9499C17.377 12.0019 17.574 12.0281 17.769 12.0281C18.159 12.0281 18.5428 11.9251 18.8888 11.7251L20.6288 10.719C21.6988 10.098 22.0669 8.71898 21.4479 7.64598ZM9.24186 13.916L7.4379 10.8059L13.415 6.73802L15.758 10.802L9.24186 13.916ZM5.79484 15.563C5.20984 15.843 4.49892 15.6209 4.17692 15.0549L3.91691 14.604C3.59191 14.042 3.75698 13.3149 4.28898 12.9499L6.19596 11.6521L7.88492 14.5639L5.79484 15.563ZM19.8749 9.4199L18.1349 10.425C17.9649 10.526 17.764 10.553 17.569 10.5C17.376 10.448 17.2149 10.3251 17.1149 10.1521L14.6508 5.87694C14.4458 5.52094 14.568 5.06389 14.923 4.85789L16.6669 3.85008C16.7809 3.78308 16.909 3.74901 17.039 3.74901C17.103 3.74901 17.1688 3.75689 17.2328 3.77489C17.4258 3.82689 17.5869 3.95003 17.6869 4.12303L20.1488 8.39403C20.3548 8.75303 20.2319 9.2129 19.8749 9.4199Z" fill="currentColor"/>
</svg>

<svg xmlns="http://www.w3.org/2000/svg" width="24" height="24" fill="none"><path fill="currentColor" d="m21.448 7.646-2.462-4.271a2.226 2.226 0 0 0-1.365-1.048 2.224 2.224 0 0 0-1.705.225L14.172 3.56c-.605.35-.976.944-1.081 1.585l-9.647 6.566a2.761 2.761 0 0 0-.825 3.644l.258.447a2.755 2.755 0 0 0 3.566 1.115l3.853-1.841-2.94 5.575a.75.75 0 1 0 1.327.7l3.319-6.296 3.344 6.297a.75.75 0 0 0 1.325-.703l-3.65-6.875 3.97-1.896c.065.024.125.054.193.072a2.231 2.231 0 0 0 1.705-.225l1.74-1.006c1.07-.621 1.438-2 .819-3.073Zm-12.206 6.27-1.804-3.11 5.977-4.068 2.343 4.064-6.516 3.114Zm-3.447 1.647a1.248 1.248 0 0 1-1.618-.508l-.26-.451a1.255 1.255 0 0 1 .372-1.654l1.907-1.298 1.689 2.912-2.09.999Zm14.08-6.143-1.74 1.005a.726.726 0 0 1-.566.075.743.743 0 0 1-.454-.348L14.65 5.877a.748.748 0 0 1 .272-1.02l1.744-1.007a.733.733 0 0 1 .566-.075.744.744 0 0 1 .454.348l2.462 4.271a.754.754 0 0 1-.274 1.026Z"/></svg>
